X:1
T:Buxtehude - Aria:  La Capricciosa in G Minor.
%%score { ( 1 2 ) | ( 3 4 ) }
L:1/8
Q:1/4=120
M:4/4
K:G
V:1 treble nm="Harpsichord" snm="Hch."
V:2 treble 
V:3 bass 
V:4 bass 
V:1
"^Partita 32"!ff! d2 d2 e2 e2 | d2 d2 B2 G2 | B2 B2 c2 B2 | A2 A2 G4 :: B2 B2 c2 c2 | A2 A2 B2 G2 | %6
 B2 B2 c2 B2 | A2 A2 G4 :| x4 :| %9
V:2
 [GB]2 [GB]2 [Gc]2 [Gc]2 | [GB]2 [FA]2 [DG]2 [B,D]2 | [DG]2 [DG]2 [CF]2 [DG]2 | %3
 [EG]2 [CF]2 [B,D]4 :: [DG]2 [DG]2 [EG]2 [EG]2 | [EG]2 [DF]2 [DG]2 [B,D]2 | %6
 [DG]2 [DG]2 [EA]2 [DG]2 | [EG]2 [DF]2 [B,D]4 :| x4 :| %9
V:3
 z/ C/B,/A,/ G,/A,/G,/=F,/ E,/F,/E,/D,/ C,/D,/E,/^F,/ | %1
 G,/A,/B,/C/ D/A,/D/D,/ G,/A,/G,/F,/ G,/B,/D,/G,/ | %2
 D,/G,/B,,/D,/ G,,/D,/C,/B,,/ A,,/C,/B,,/A,,/ B,,/D,/C,/B,,/ | %3
 C,/E,/D,/C,/ D,/A,,/D,/D,,/ G,,/G,/F,/E,/ D,/C,/B,,/A,,/ :: %4
 G,,/F,/G,/A,/ G,/A,/G,/=F,/ E,/F,/E,/D,/ C,/D,/C,/B,,/ | %5
 C,/D,/C,/A,,/ D,/E,/D,/D,,/ G,,/D,/E,/F,/ G,/D,/B,,/D,/ | %6
 G,,/A,,/B,,/A,,/ G,,/=F,,/E,,/D,,/ C,,/C,/E,/C,/ G,/D,/G,/B,,/ | %7
 C,/E,/A,,/C,/ D,/A,,/D,,/D,/ G,,/A,,/B,,/C,/ D,/E,/F,/G,/ :| x4 :| %9
V:4
 x8 | x8 | x8 | x8 :: x8 | x8 | x8 | x8 :| !fermata!G,,4 :| %9

